assets/icons/google.svg

<?xml version="1.0" encoding="utf-8"?><!-- Uploaded to: SVG Repo, www.svgrepo.com, Generator: SVG Repo Mixer Tools -->
<svg width="800px" height="800px" viewBox="0 0 24 24" fill="none" xmlns="http://www.w3.org/2000/svg">
<path d="M19.76 10.77L19.67 10.42H12.23V13.58H16.68C16.4317 14.5443 15.8672 15.3974 15.0767 16.0029C14.2863 16.6084 13.3156 16.9313 12.32 16.92C11.0208 16.9093 9.77254 16.4135 8.81999 15.53C8.35174 15.0685 7.97912 14.5191 7.72344 13.9134C7.46777 13.3077 7.33407 12.6575 7.33 12C7.34511 10.6795 7.86792 9.41544 8.79 8.47002C9.7291 7.58038 10.9764 7.08932 12.27 7.10002C13.3779 7.10855 14.4446 7.52101 15.27 8.26002L17.47 6.00002C16.02 4.70638 14.1432 3.9941 12.2 4.00002C11.131 3.99367 10.0713 4.19793 9.08127 4.60115C8.09125 5.00436 7.19034 5.59863 6.43 6.35002C4.98369 7.8523 4.16827 9.85182 4.15152 11.9371C4.13478 14.0224 4.918 16.0347 6.34 17.56C7.12784 18.3449 8.06422 18.965 9.09441 19.3839C10.1246 19.8029 11.2279 20.0123 12.34 20C13.3484 20.0075 14.3479 19.8102 15.2779 19.42C16.2078 19.0298 17.0488 18.4549 17.75 17.73C19.1259 16.2171 19.8702 14.2347 19.83 12.19C19.8408 11.7156 19.8174 11.2411 19.76 10.77Z" fill="#000000"/>
</svg>

<svg xmlns="http://www.w3.org/2000/svg" width="800" height="800" fill="none" viewBox="0 0 24 24"><path fill="#000" d="m19.76 10.77-.09-.35h-7.44v3.16h4.45a4.45 4.45 0 0 1-4.36 3.34 5.2 5.2 0 0 1-3.5-1.39A5 5 0 0 1 7.33 12a5.14 5.14 0 0 1 1.46-3.53 5 5 0 0 1 3.48-1.37 4.55 4.55 0 0 1 3 1.16L17.47 6a7.88 7.88 0 0 0-5.27-2 8.14 8.14 0 0 0-5.77 2.35 8.15 8.15 0 0 0-.09 11.21 8.37 8.37 0 0 0 6 2.44 7.45 7.45 0 0 0 5.41-2.27 8 8 0 0 0 2.08-5.54 10 10 0 0 0-.07-1.42"/></svg>
